images/16758179.svg

<?xml version="1.0" encoding="UTF-8"?>
<svg xmlns="http://www.w3.org/2000/svg" xmlns:xlink="http://www.w3.org/1999/xlink" width="300pt" height="300pt" viewBox="0 0 300 300" version="1.1">
<defs>
<g>
<symbol overflow="visible" id="glyph0-0">
<path style="stroke:none;" d="M 0.453125 1.59375 L 0.453125 -6.34375 L 4.953125 -6.34375 L 4.953125 1.59375 Z M 0.953125 1.09375 L 4.453125 1.09375 L 4.453125 -5.84375 L 0.953125 -5.84375 Z M 0.953125 1.09375 "/>
</symbol>
<symbol overflow="visible" id="glyph0-1">
<path style="stroke:none;" d="M 3.546875 -5.953125 C 2.898438 -5.953125 2.382812 -5.710938 2 -5.234375 C 1.625 -4.753906 1.4375 -4.101562 1.4375 -3.28125 C 1.4375 -2.445312 1.625 -1.789062 2 -1.3125 C 2.382812 -0.832031 2.898438 -0.59375 3.546875 -0.59375 C 4.191406 -0.59375 4.703125 -0.832031 5.078125 -1.3125 C 5.453125 -1.789062 5.640625 -2.445312 5.640625 -3.28125 C 5.640625 -4.101562 5.453125 -4.753906 5.078125 -5.234375 C 4.703125 -5.710938 4.191406 -5.953125 3.546875 -5.953125 Z M 3.546875 -6.6875 C 4.460938 -6.6875 5.195312 -6.375 5.75 -5.75 C 6.300781 -5.132812 6.578125 -4.3125 6.578125 -3.28125 C 6.578125 -2.238281 6.300781 -1.410156 5.75 -0.796875 C 5.195312 -0.179688 4.460938 0.125 3.546875 0.125 C 2.617188 0.125 1.878906 -0.179688 1.328125 -0.796875 C 0.773438 -1.410156 0.5 -2.238281 0.5 -3.28125 C 0.5 -4.3125 0.773438 -5.132812 1.328125 -5.75 C 1.878906 -6.375 2.617188 -6.6875 3.546875 -6.6875 Z M 3.546875 -6.6875 "/>
</symbol>
<symbol overflow="visible" id="glyph0-2">
<path style="stroke:none;" d="M 0.890625 -6.5625 L 1.765625 -6.5625 L 1.765625 -3.875 L 5 -3.875 L 5 -6.5625 L 5.890625 -6.5625 L 5.890625 0 L 5 0 L 5 -3.125 L 1.765625 -3.125 L 1.765625 0 L 0.890625 0 Z M 0.890625 -6.5625 "/>
</symbol>
<symbol overflow="visible" id="glyph0-3">
<path style="stroke:none;" d="M 0.890625 -6.5625 L 4.65625 -6.5625 L 4.65625 -5.8125 L 1.765625 -5.8125 L 1.765625 -3.875 L 4.375 -3.875 L 4.375 -3.140625 L 1.765625 -3.140625 L 1.765625 0 L 0.890625 0 Z M 0.890625 -6.5625 "/>
</symbol>
</g>
</defs>
<g id="surface37597">
<rect x="0" y="0" width="300" height="300" style="fill:rgb(100%,100%,100%);fill-opacity:1;stroke:none;"/>
<path style=" stroke:none;fill-rule:nonzero;fill:rgb(0%,0%,0%);fill-opacity:1;" d="M 117.128906 148.058594 L 115.746094 134.339844 L 107.816406 137.890625 Z M 117.128906 148.058594 "/>
<path style="fill:none;stroke-width:1.2;stroke-linecap:butt;stroke-linejoin:miter;stroke:rgb(0%,0%,0%);stroke-opacity:1;stroke-miterlimit:10;" d="M 117.128906 148.058594 L 128.640625 126.292969 "/>
<path style="fill:none;stroke-width:1.2;stroke-linecap:butt;stroke-linejoin:miter;stroke:rgb(0%,0%,0%);stroke-opacity:1;stroke-miterlimit:10;" d="M 130.21875 168.910156 L 117.128906 148.058594 "/>
<path style="fill:none;stroke-width:1.2;stroke-linecap:butt;stroke-linejoin:miter;stroke:rgb(0%,0%,0%);stroke-opacity:1;stroke-miterlimit:10;" d="M 93.25 154.0625 L 117.128906 148.058594 "/>
<path style="fill:none;stroke-width:1.2;stroke-linecap:butt;stroke-linejoin:miter;stroke:rgb(0%,0%,0%);stroke-opacity:1;stroke-miterlimit:10;" d="M 128.640625 126.292969 L 153.242188 125.382812 "/>
<path style="fill:none;stroke-width:1.2;stroke-linecap:butt;stroke-linejoin:miter;stroke:rgb(0%,0%,0%);stroke-opacity:1;stroke-miterlimit:10;" d="M 153.242188 125.382812 L 166.335938 146.234375 "/>
<path style="fill:none;stroke-width:1.2;stroke-linecap:butt;stroke-linejoin:miter;stroke:rgb(0%,0%,0%);stroke-opacity:1;stroke-miterlimit:10;" d="M 153.242188 125.382812 L 159 114.5 "/>
<path style="fill:none;stroke-width:1.2;stroke-linecap:butt;stroke-linejoin:miter;stroke:rgb(100%,0%,0%);stroke-opacity:1;stroke-miterlimit:10;" d="M 159 114.5 L 164.757812 103.617188 "/>
<path style="fill:none;stroke-width:1.2;stroke-linecap:butt;stroke-linejoin:miter;stroke:rgb(0%,0%,0%);stroke-opacity:1;stroke-miterlimit:10;" d="M 166.335938 146.234375 L 154.824219 167.996094 "/>
<path style=" stroke:none;fill-rule:nonzero;fill:rgb(0%,0%,0%);fill-opacity:1;" d="M 166.335938 146.234375 L 179.167969 124.777344 L 171.050781 121.679688 Z M 166.335938 146.234375 "/>
<path style="fill:none;stroke-width:1.2;stroke-linecap:butt;stroke-linejoin:miter;stroke:rgb(0%,0%,0%);stroke-opacity:1;stroke-miterlimit:10;" d="M 190.9375 145.320312 L 166.335938 146.234375 "/>
<path style="fill:none;stroke-width:1.2;stroke-linecap:butt;stroke-linejoin:miter;stroke:rgb(0%,0%,0%);stroke-opacity:1;stroke-miterlimit:10;" d="M 154.824219 167.996094 L 130.21875 168.910156 "/>
<path style="fill:none;stroke-width:1.2;stroke-linecap:butt;stroke-linejoin:miter;stroke:rgb(0%,0%,0%);stroke-opacity:1;stroke-miterlimit:10;" d="M 154.824219 167.996094 L 167.914062 188.847656 "/>
<path style="fill:none;stroke-width:1.2;stroke-linecap:butt;stroke-linejoin:miter;stroke:rgb(0%,0%,0%);stroke-opacity:1;stroke-miterlimit:10;" d="M 130.21875 168.910156 L 114.433594 187.800781 "/>
<path style="fill:none;stroke-width:1.2;stroke-linecap:butt;stroke-linejoin:miter;stroke:rgb(0%,0%,0%);stroke-opacity:1;stroke-miterlimit:10;" d="M 114.433594 187.800781 L 91.585938 178.628906 "/>
<path style="fill:none;stroke-width:1.2;stroke-linecap:butt;stroke-linejoin:miter;stroke:rgb(0%,0%,0%);stroke-opacity:1;stroke-miterlimit:10;" d="M 91.585938 178.628906 L 93.25 154.0625 "/>
<path style="fill:none;stroke-width:1.2;stroke-linecap:butt;stroke-linejoin:miter;stroke:rgb(100%,0%,0%);stroke-opacity:1;stroke-miterlimit:10;" d="M 67.710938 184.636719 L 79.648438 181.632812 "/>
<path style="fill:none;stroke-width:1.2;stroke-linecap:butt;stroke-linejoin:miter;stroke:rgb(0%,0%,0%);stroke-opacity:1;stroke-miterlimit:10;" d="M 79.648438 181.632812 L 91.585938 178.628906 "/>
<path style="fill:none;stroke-width:1.2;stroke-linecap:butt;stroke-linejoin:miter;stroke:rgb(0%,0%,0%);stroke-opacity:1;stroke-miterlimit:10;" d="M 93.25 154.0625 L 81.828125 149.476562 "/>
<path style="fill:none;stroke-width:1.2;stroke-linecap:butt;stroke-linejoin:miter;stroke:rgb(100%,0%,0%);stroke-opacity:1;stroke-miterlimit:10;" d="M 81.828125 149.476562 L 70.40625 144.890625 "/>
<path style="fill:none;stroke-width:1;stroke-linecap:butt;stroke-linejoin:miter;stroke:rgb(0%,0%,0%);stroke-opacity:1;stroke-miterlimit:10;" d="M 93.25 154.0625 L 93.25 154.0625 M 93.972656 151.152344 L 92.929688 151.082031 M 94.691406 148.238281 L 92.609375 148.097656 M 95.410156 145.328125 L 92.289062 145.117188 M 96.132812 142.414062 L 91.96875 142.132812 M 96.851562 139.503906 L 91.648438 139.148438 M 97.570312 136.589844 L 91.328125 136.167969 M 98.292969 133.679688 L 91.007812 133.183594 M 99.011719 130.765625 L 90.6875 130.203125 M 99.25 129.792969 L 90.582031 129.207031 "/>
<path style="fill:none;stroke-width:1.2;stroke-linecap:butt;stroke-linejoin:miter;stroke:rgb(100%,0%,0%);stroke-opacity:1;stroke-miterlimit:10;" d="M 70.40625 144.890625 L 62.511719 154.335938 "/>
<path style="fill:none;stroke-width:1.2;stroke-linecap:butt;stroke-linejoin:miter;stroke:rgb(0%,0%,0%);stroke-opacity:1;stroke-miterlimit:10;" d="M 62.511719 154.335938 L 54.617188 163.785156 "/>
<path style=" stroke:none;fill-rule:nonzero;fill:rgb(100%,100%,100%);fill-opacity:1;" d="M 66.40625 139.390625 L 74.40625 139.390625 L 74.40625 150.390625 L 66.40625 150.390625 Z M 66.40625 139.390625 "/>
<g style="fill:rgb(100%,0%,0%);fill-opacity:1;">
  <use xlink:href="#glyph0-1" x="66.40625" y="148.053711"/>
</g>
<path style="fill:none;stroke-width:1.2;stroke-linecap:butt;stroke-linejoin:miter;stroke:rgb(0%,0%,0%);stroke-opacity:1;stroke-miterlimit:10;" d="M 54.617188 163.785156 L 61.164062 174.210938 "/>
<path style="fill:none;stroke-width:1.2;stroke-linecap:butt;stroke-linejoin:miter;stroke:rgb(100%,0%,0%);stroke-opacity:1;stroke-miterlimit:10;" d="M 61.164062 174.210938 L 67.710938 184.636719 "/>
<path style="fill:none;stroke-width:1.2;stroke-linecap:butt;stroke-linejoin:miter;stroke:rgb(0%,0%,0%);stroke-opacity:1;stroke-miterlimit:10;" d="M 54.617188 163.785156 L 37.476562 146.109375 "/>
<path style="fill:none;stroke-width:1.2;stroke-linecap:butt;stroke-linejoin:miter;stroke:rgb(0%,0%,0%);stroke-opacity:1;stroke-miterlimit:10;" d="M 54.617188 163.785156 L 35.25 178.984375 "/>
<path style=" stroke:none;fill-rule:nonzero;fill:rgb(100%,100%,100%);fill-opacity:1;" d="M 63.710938 179.136719 L 71.710938 179.136719 L 71.710938 190.136719 L 63.710938 190.136719 Z M 63.710938 179.136719 "/>
<g style="fill:rgb(100%,0%,0%);fill-opacity:1;">
  <use xlink:href="#glyph0-1" x="63.710938" y="187.799805"/>
</g>
<path style="fill:none;stroke-width:1.2;stroke-linecap:butt;stroke-linejoin:miter;stroke:rgb(0%,0%,0%);stroke-opacity:1;stroke-miterlimit:10;" d="M 96.191406 132.101562 L 102.066406 129.21875 "/>
<path style="fill:none;stroke-width:1.2;stroke-linecap:butt;stroke-linejoin:miter;stroke:rgb(100%,0%,0%);stroke-opacity:1;stroke-miterlimit:10;" d="M 102.066406 129.21875 L 107.941406 126.339844 "/>
<path style="fill:none;stroke-width:1.2;stroke-linecap:butt;stroke-linejoin:miter;stroke:rgb(0%,0%,0%);stroke-opacity:1;stroke-miterlimit:10;" d="M 93.640625 126.898438 L 99.515625 124.019531 "/>
<path style="fill:none;stroke-width:1.2;stroke-linecap:butt;stroke-linejoin:miter;stroke:rgb(100%,0%,0%);stroke-opacity:1;stroke-miterlimit:10;" d="M 99.515625 124.019531 L 105.390625 121.136719 "/>
<path style="fill:none;stroke-width:1.2;stroke-linecap:butt;stroke-linejoin:miter;stroke:rgb(0%,0%,0%);stroke-opacity:1;stroke-miterlimit:10;" d="M 94.917969 129.5 L 74.476562 115.777344 "/>
<path style=" stroke:none;fill-rule:nonzero;fill:rgb(100%,100%,100%);fill-opacity:1;" d="M 102.664062 118.238281 L 110.664062 118.238281 L 110.664062 129.238281 L 102.664062 129.238281 Z M 102.664062 118.238281 "/>
<g style="fill:rgb(100%,0%,0%);fill-opacity:1;">
  <use xlink:href="#glyph0-1" x="102.664062" y="126.901367"/>
</g>
<path style="fill:none;stroke-width:1.2;stroke-linecap:butt;stroke-linejoin:miter;stroke:rgb(0%,0%,0%);stroke-opacity:1;stroke-miterlimit:10;" d="M 74.476562 115.777344 L 75.308594 103.492188 "/>
<path style="fill:none;stroke-width:1.2;stroke-linecap:butt;stroke-linejoin:miter;stroke:rgb(100%,0%,0%);stroke-opacity:1;stroke-miterlimit:10;" d="M 75.308594 103.492188 L 76.140625 91.210938 "/>
<path style=" stroke:none;fill-rule:nonzero;fill:rgb(100%,100%,100%);fill-opacity:1;" d="M 69.140625 85.710938 L 84.140625 85.710938 L 84.140625 96.710938 L 69.140625 96.710938 Z M 69.140625 85.710938 "/>
<g style="fill:rgb(100%,0%,0%);fill-opacity:1;">
  <use xlink:href="#glyph0-1" x="69.140625" y="94.374023"/>
  <use xlink:href="#glyph0-2" x="76.482422" y="94.374023"/>
</g>
<path style="fill:none;stroke-width:1.2;stroke-linecap:butt;stroke-linejoin:miter;stroke:rgb(0%,0%,0%);stroke-opacity:1;stroke-miterlimit:10;" d="M 167.914062 188.847656 L 192.519531 187.9375 "/>
<path style="fill:none;stroke-width:1.2;stroke-linecap:butt;stroke-linejoin:miter;stroke:rgb(0%,0%,0%);stroke-opacity:1;stroke-miterlimit:10;" d="M 192.519531 187.9375 L 204.03125 166.171875 "/>
<path style="fill:none;stroke-width:1.2;stroke-linecap:butt;stroke-linejoin:miter;stroke:rgb(0%,0%,0%);stroke-opacity:1;stroke-miterlimit:10;" d="M 192.519531 187.9375 L 199.0625 198.363281 "/>
<path style="fill:none;stroke-width:1.2;stroke-linecap:butt;stroke-linejoin:miter;stroke:rgb(20%,80%,80%);stroke-opacity:1;stroke-miterlimit:10;" d="M 199.0625 198.363281 L 205.609375 208.789062 "/>
<path style="fill:none;stroke-width:1.2;stroke-linecap:butt;stroke-linejoin:miter;stroke:rgb(0%,0%,0%);stroke-opacity:1;stroke-miterlimit:10;" d="M 204.03125 166.171875 L 228.632812 165.261719 "/>
<path style="fill:none;stroke-width:1.2;stroke-linecap:butt;stroke-linejoin:miter;stroke:rgb(0%,0%,0%);stroke-opacity:1;stroke-miterlimit:10;" d="M 206.277344 160.292969 L 225.960938 159.5625 "/>
<path style="fill:none;stroke-width:1.2;stroke-linecap:butt;stroke-linejoin:miter;stroke:rgb(0%,0%,0%);stroke-opacity:1;stroke-miterlimit:10;" d="M 190.9375 145.320312 L 204.03125 166.171875 "/>
<path style="fill:none;stroke-width:1.2;stroke-linecap:butt;stroke-linejoin:miter;stroke:rgb(0%,0%,0%);stroke-opacity:1;stroke-miterlimit:10;" d="M 228.632812 165.261719 L 240.144531 143.5 "/>
<path style="fill:none;stroke-width:1.2;stroke-linecap:butt;stroke-linejoin:miter;stroke:rgb(0%,0%,0%);stroke-opacity:1;stroke-miterlimit:10;" d="M 240.253906 146.394531 L 252.554688 145.9375 "/>
<path style="fill:none;stroke-width:1.2;stroke-linecap:butt;stroke-linejoin:miter;stroke:rgb(100%,0%,0%);stroke-opacity:1;stroke-miterlimit:10;" d="M 252.554688 145.9375 L 264.855469 145.480469 "/>
<path style="fill:none;stroke-width:1.2;stroke-linecap:butt;stroke-linejoin:miter;stroke:rgb(0%,0%,0%);stroke-opacity:1;stroke-miterlimit:10;" d="M 240.039062 140.605469 L 252.339844 140.148438 "/>
<path style="fill:none;stroke-width:1.2;stroke-linecap:butt;stroke-linejoin:miter;stroke:rgb(100%,0%,0%);stroke-opacity:1;stroke-miterlimit:10;" d="M 252.339844 140.148438 L 264.644531 139.691406 "/>
<path style="fill:none;stroke-width:1.2;stroke-linecap:butt;stroke-linejoin:miter;stroke:rgb(0%,0%,0%);stroke-opacity:1;stroke-miterlimit:10;" d="M 240.144531 143.5 L 227.054688 122.648438 "/>
<path style=" stroke:none;fill-rule:nonzero;fill:rgb(100%,100%,100%);fill-opacity:1;" d="M 260.75 137.085938 L 268.75 137.085938 L 268.75 148.085938 L 260.75 148.085938 Z M 260.75 137.085938 "/>
<g style="fill:rgb(100%,0%,0%);fill-opacity:1;">
  <use xlink:href="#glyph0-1" x="260.75" y="145.749023"/>
</g>
<path style="fill:none;stroke-width:1.2;stroke-linecap:butt;stroke-linejoin:miter;stroke:rgb(0%,0%,0%);stroke-opacity:1;stroke-miterlimit:10;" d="M 227.054688 122.648438 L 202.453125 123.558594 "/>
<path style="fill:none;stroke-width:1.2;stroke-linecap:butt;stroke-linejoin:miter;stroke:rgb(0%,0%,0%);stroke-opacity:1;stroke-miterlimit:10;" d="M 224.808594 128.527344 L 205.125 129.257812 "/>
<path style="fill:none;stroke-width:1.2;stroke-linecap:butt;stroke-linejoin:miter;stroke:rgb(0%,0%,0%);stroke-opacity:1;stroke-miterlimit:10;" d="M 202.453125 123.558594 L 190.9375 145.320312 "/>
<path style=" stroke:none;fill-rule:nonzero;fill:rgb(0%,0%,0%);fill-opacity:1;" d="M 190.9375 145.320312 L 184.421875 121.1875 L 176.554688 124.875 Z M 190.9375 145.320312 "/>
<path style=" stroke:none;fill-rule:nonzero;fill:rgb(100%,100%,100%);fill-opacity:1;" d="M 202.609375 203.289062 L 208.609375 203.289062 L 208.609375 214.289062 L 202.609375 214.289062 Z M 202.609375 203.289062 "/>
<g style="fill:rgb(20%,80%,80%);fill-opacity:1;">
  <use xlink:href="#glyph0-3" x="202.609375" y="211.952148"/>
</g>
<path style=" stroke:none;fill-rule:nonzero;fill:rgb(100%,100%,100%);fill-opacity:1;" d="M 172.109375 117.730469 L 178.109375 117.730469 L 178.109375 128.730469 L 172.109375 128.730469 Z M 172.109375 117.730469 "/>
<g style="fill:rgb(20%,80%,80%);fill-opacity:1;">
  <use xlink:href="#glyph0-3" x="172.109375" y="126.393555"/>
</g>
<path style=" stroke:none;fill-rule:nonzero;fill:rgb(100%,100%,100%);fill-opacity:1;" d="M 157.757812 98.117188 L 172.757812 98.117188 L 172.757812 109.117188 L 157.757812 109.117188 Z M 157.757812 98.117188 "/>
<g style="fill:rgb(100%,0%,0%);fill-opacity:1;">
  <use xlink:href="#glyph0-1" x="157.757812" y="106.780273"/>
  <use xlink:href="#glyph0-2" x="165.099609" y="106.780273"/>
</g>
</g>
</svg>

<svg xmlns="http://www.w3.org/2000/svg" xmlns:xlink="http://www.w3.org/1999/xlink" width="300pt" height="300pt" viewBox="0 0 300 300"><defs><symbol overflow="visible"><path d="M.453 1.594v-7.938h4.5v7.938zm.5-.5h3.5v-6.938h-3.5zm0 0"/></symbol><symbol overflow="visible" id="a"><path d="M3.547-5.953c-.65 0-1.164.242-1.547.72-.375.48-.563 1.13-.563 1.952 0 .835.188 1.49.563 1.967.383.48.898.72 1.547.72.644 0 1.156-.24 1.53-.72.376-.476.564-1.132.564-1.968 0-.822-.187-1.474-.562-1.954-.375-.477-.887-.72-1.53-.72zm0-.734c.914 0 1.648.312 2.203.937.55.617.828 1.438.828 2.47 0 1.042-.277 1.87-.828 2.483-.555.617-1.29.922-2.203.922-.93 0-1.668-.305-2.22-.922C.774-1.41.5-2.237.5-3.28c0-1.033.273-1.853.828-2.47.55-.625 1.29-.938 2.22-.938zm0 0"/></symbol><symbol overflow="visible" id="b"><path d="M.89-6.563h.876v2.688H5v-2.688h.89V0H5v-3.125H1.766V0H.89zm0 0"/></symbol><symbol overflow="visible" id="c"><path d="M.89-6.563h3.766v.75h-2.89v1.938h2.61v.734h-2.61V0H.89zm0 0"/></symbol></defs><g><path fill="#fff" d="M0 0h300v300H0z"/><path d="M117.13 148.06l-1.384-13.72-7.93 3.55zm0 0"/><path d="M117.13 148.06l11.51-21.767M130.22 168.91l-13.09-20.85M93.25 154.063l23.88-6.004M128.64 126.293l24.602-.91M153.242 125.383l13.094 20.85M153.242 125.383L159 114.5" stroke-width="1.2" stroke="#000" stroke-miterlimit="10" fill="none"/><path d="M159 114.5l5.758-10.883" stroke-width="1.2" stroke="#f00" stroke-miterlimit="10" fill="none"/><path d="M166.336 146.234l-11.512 21.762" stroke-width="1.2" stroke="#000" stroke-miterlimit="10" fill="none"/><path d="M166.336 146.234l12.832-21.457-8.117-3.097zm0 0"/><path d="M190.938 145.32l-24.602.914M154.824 167.996l-24.605.914M154.824 167.996l13.09 20.852M130.22 168.91l-15.786 18.89M114.434 187.8l-22.848-9.17M91.586 178.63l1.664-24.567" stroke-width="1.2" stroke="#000" stroke-miterlimit="10" fill="none"/><path d="M67.71 184.637l11.938-3.004" stroke-width="1.2" stroke="#f00" stroke-miterlimit="10" fill="none"/><path d="M79.648 181.633l11.938-3.004M93.25 154.063l-11.422-4.586" stroke-width="1.2" stroke="#000" stroke-miterlimit="10" fill="none"/><path d="M81.828 149.477l-11.422-4.586" stroke-width="1.2" stroke="#f00" stroke-miterlimit="10" fill="none"/><path d="M93.25 154.063m.723-2.91l-1.043-.07m1.76-2.845l-2.08-.14m2.8-2.77l-3.12-.21m3.843-2.704l-4.164-.28m4.882-2.63l-5.204-.356m5.922-2.558l-6.242-.422m6.965-2.488l-7.285-.496m8.004-2.418l-8.325-.563m8.563-.41l-8.668-.586" stroke="#000" stroke-miterlimit="10" fill="none"/><path d="M70.406 144.89l-7.894 9.446" stroke-width="1.2" stroke="#f00" stroke-miterlimit="10" fill="none"/><path d="M62.512 154.336l-7.895 9.45" stroke-width="1.2" stroke="#000" stroke-miterlimit="10" fill="none"/><path d="M66.406 139.39h8v11h-8zm0 0" fill="#fff"/><use xlink:href="#a" x="66.406" y="148.054" fill="#f00"/><path d="M54.617 163.785l6.547 10.426" stroke-width="1.2" stroke="#000" stroke-miterlimit="10" fill="none"/><path d="M61.164 174.21l6.547 10.427" stroke-width="1.2" stroke="#f00" stroke-miterlimit="10" fill="none"/><path d="M54.617 163.785l-17.14-17.676M54.617 163.785l-19.367 15.2" stroke-width="1.2" stroke="#000" stroke-miterlimit="10" fill="none"/><path d="M63.71 179.137h8v11h-8zm0 0" fill="#fff"/><use xlink:href="#a" x="63.711" y="187.8" fill="#f00"/><path d="M96.19 132.102l5.876-2.883" stroke-width="1.2" stroke="#000" stroke-miterlimit="10" fill="none"/><path d="M102.066 129.22l5.875-2.88" stroke-width="1.2" stroke="#f00" stroke-miterlimit="10" fill="none"/><path d="M93.64 126.898l5.876-2.878" stroke-width="1.2" stroke="#000" stroke-miterlimit="10" fill="none"/><path d="M99.516 124.02l5.875-2.883" stroke-width="1.2" stroke="#f00" stroke-miterlimit="10" fill="none"/><path d="M94.918 129.5l-20.44-13.723" stroke-width="1.2" stroke="#000" stroke-miterlimit="10" fill="none"/><path d="M102.664 118.238h8v11h-8zm0 0" fill="#fff"/><use xlink:href="#a" x="102.664" y="126.901" fill="#f00"/><path d="M74.477 115.777l.832-12.285" stroke-width="1.2" stroke="#000" stroke-miterlimit="10" fill="none"/><path d="M75.31 103.492l.83-12.28" stroke-width="1.2" stroke="#f00" stroke-miterlimit="10" fill="none"/><path d="M69.14 85.71h15v11h-15zm0 0" fill="#fff"/><g fill="#f00"><use xlink:href="#a" x="69.141" y="94.374"/><use xlink:href="#b" x="76.482" y="94.374"/></g><path d="M167.914 188.848l24.606-.91M192.52 187.938l11.51-21.766M192.52 187.938l6.542 10.425" stroke-width="1.2" stroke="#000" stroke-miterlimit="10" fill="none"/><path d="M199.063 198.363l6.546 10.426" stroke-width="1.2" stroke="#3cc" stroke-miterlimit="10" fill="none"/><path d="M204.03 166.172l24.603-.91M206.277 160.293l19.684-.73M190.938 145.32l13.093 20.852M228.633 165.262l11.512-21.762M240.254 146.395l12.3-.458" stroke-width="1.2" stroke="#000" stroke-miterlimit="10" fill="none"/><path d="M252.555 145.938l12.3-.458" stroke-width="1.2" stroke="#f00" stroke-miterlimit="10" fill="none"/><path d="M240.04 140.605l12.3-.457" stroke-width="1.2" stroke="#000" stroke-miterlimit="10" fill="none"/><path d="M252.34 140.148l12.305-.457" stroke-width="1.2" stroke="#f00" stroke-miterlimit="10" fill="none"/><path d="M240.145 143.5l-13.09-20.852" stroke-width="1.2" stroke="#000" stroke-miterlimit="10" fill="none"/><path d="M260.75 137.086h8v11h-8zm0 0" fill="#fff"/><use xlink:href="#a" x="260.75" y="145.749" fill="#f00"/><path d="M227.055 122.648l-24.602.91M224.81 128.527l-19.685.73M202.453 123.56l-11.516 21.76" stroke-width="1.2" stroke="#000" stroke-miterlimit="10" fill="none"/><path d="M190.938 145.32l-6.516-24.132-7.867 3.687zm0 0"/><path d="M202.61 203.29h6v11h-6zm0 0" fill="#fff"/><use xlink:href="#c" x="202.609" y="211.952" fill="#3cc"/><path d="M172.11 117.73h6v11h-6zm0 0" fill="#fff"/><use xlink:href="#c" x="172.109" y="126.394" fill="#3cc"/><path d="M157.758 98.117h15v11h-15zm0 0" fill="#fff"/><g fill="#f00"><use xlink:href="#a" x="157.758" y="106.78"/><use xlink:href="#b" x="165.1" y="106.78"/></g></g></svg>
